storage/app/icons/phosphoricons/light/backpack-light.svg

<svg xmlns="http://www.w3.org/2000/svg" fill="currentColor" viewBox="0 0 256 256"><path d="M166 42.34V32a22 22 0 0 0-22-22h-32a22 22 0 0 0-22 22v10.34A54.07 54.07 0 0 0 42 96v120a14 14 0 0 0 14 14h144a14 14 0 0 0 14-14V96a54.07 54.07 0 0 0-48-53.66M112 22h32a10 10 0 0 1 10 10v10h-52V32a10 10 0 0 1 10-10m58 140H86v-10a10 10 0 0 1 10-10h64a10 10 0 0 1 10 10Zm-84 12h52v10a6 6 0 0 0 12 0v-10h20v44H86Zm116 42a2 2 0 0 1-2 2h-18v-66a22 22 0 0 0-22-22H96a22 22 0 0 0-22 22v66H56a2 2 0 0 1-2-2V96a42 42 0 0 1 42-42h64a42 42 0 0 1 42 42ZM150 88a6 6 0 0 1-6 6h-32a6 6 0 0 1 0-12h32a6 6 0 0 1 6 6"/></svg>

<svg xmlns="http://www.w3.org/2000/svg" viewBox="0 0 256 256" fill="currentColor"><path d="M166,42.34V32a22,22,0,0,0-22-22H112A22,22,0,0,0,90,32V42.34A54.07,54.07,0,0,0,42,96V216a14,14,0,0,0,14,14H200a14,14,0,0,0,14-14V96A54.07,54.07,0,0,0,166,42.34ZM112,22h32a10,10,0,0,1,10,10V42H102V32A10,10,0,0,1,112,22Zm58,140H86V152a10,10,0,0,1,10-10h64a10,10,0,0,1,10,10ZM86,174h52v10a6,6,0,0,0,12,0V174h20v44H86Zm116,42a2,2,0,0,1-2,2H182V152a22,22,0,0,0-22-22H96a22,22,0,0,0-22,22v66H56a2,2,0,0,1-2-2V96A42,42,0,0,1,96,54h64a42,42,0,0,1,42,42ZM150,88a6,6,0,0,1-6,6H112a6,6,0,0,1,0-12h32A6,6,0,0,1,150,88Z"/></svg>
